X: 10535
T: Doonagore, The
R: reel
M: 4/4
K: Gmajor
|:DG (3GGG FGAc|BG (3GGG ABcA|d2 cA BG (3GGG|BcdA BGAF|
DG (3GGG FGAc|BG (3GGG ABcA|d2 cA BG (3GGG|BcdA G3z:|
|:g2ge fdde|fdge fdd2|g2ge fddc|defd g2gf|
gbag fddc|B2AG ABcA|d2 cA BG (3GGG|BcdA G3z:|

